X:1
T:Title
%%score ( 1 2 ) { 3 | 4 }
L:1/8
M:4/4
K:C
V:1 treble nm="Bright Piano"
V:2 treble 
V:3 bass nm="Bright Piano"
V:4 bass 
V:1
 z4 [CE]3 [EG] | [EG]4 E4 | [CF]2 [FA]2 [FA]4 | [EG]4 [Ec]3 [CE] | [CE]4 [B,D]2 [CE]2 | %5
 [DF]4 [CE]4 | [B,D]4 [DG]2 [DG]2 | [Ge]4 [Gc]4 | [FA]2 [GB]2 [Ac]2 [FA]2 | [FA]4 [EG]4 | %10
 [DG]2 [GB]2 [Gc]2 [Gd]2 | [Ge]4 d2- [Fd]2 |[M:2/4] [Ec]4 |] %13
V:2
 x8 | x8 | x8 | x8 | x8 | x8 | x8 | x8 | x8 | x8 | x8 | z4 G2 z2 |[M:2/4] x4 |] %13
V:3
 z4 G,3 C | G,4 G,4 | A,2[K:treble] C2 C4 | C4 G,3 G, | G,4 G,4 | G,4 G,4 | G,4 B,2 B,2 | C4 C4 | %8
 C4 C4 | C4 C4 | B,2 D2 C2 B,2 | C4 B,4 |[M:2/4] C4 |] %13
V:4
 z4 C,3 C, | C,4 C,4 | A,,2 F,,2 C,4 | C,4 C,3 C, | z4 G,,4 | B,,4 C,4 | G,,4 G,2 G,2 | C,4 E,4 | %8
 F,4 F,4 | C,4 C,4 | G,2 F,2 E,2 D,2 | C,4 G,4 |[M:2/4] C,4 |] %13

